src/pos-icons/gesture-tap-hold.svg

<svg height="24" viewBox="0 0 24 24" width="24" xmlns="http://www.w3.org/2000/svg"><path d="m10 9a1 1 0 0 1 1-1 1 1 0 0 1 1 1v4.47l1.21.13 4.94 2.19c.53.24.85.77.85 1.35v4.36c-.03.82-.68 1.47-1.5 1.5h-6.5c-.38 0-.74-.15-1-.43l-4.9-4.2.74-.77c.19-.21.46-.32.74-.32h.22l3.2 1.72zm-1 3.44v-3.44a2 2 0 0 1 2-2 2 2 0 0 1 2 2v3.44c1.19-.69 2-1.97 2-3.44a4 4 0 0 0 -4-4 4 4 0 0 0 -4 4c0 1.47.81 2.75 2 3.44z"/></svg>

<?xml version="1.0" encoding="UTF-8"?><!DOCTYPE svg PUBLIC "-//W3C//DTD SVG 1.1//EN" "http://www.w3.org/Graphics/SVG/1.1/DTD/svg11.dtd"><svg xmlns="http://www.w3.org/2000/svg" xmlns:xlink="http://www.w3.org/1999/xlink" version="1.1" id="mdi-gesture-tap-hold" width="24" height="24" viewBox="0 0 24 24"><path d="M10,9A1,1 0 0,1 11,8A1,1 0 0,1 12,9V13.47L13.21,13.6L18.15,15.79C18.68,16.03 19,16.56 19,17.14V21.5C18.97,22.32 18.32,22.97 17.5,23H11C10.62,23 10.26,22.85 10,22.57L5.1,18.37L5.84,17.6C6.03,17.39 6.3,17.28 6.58,17.28H6.8L10,19V9M9,12.44V9A2,2 0 0,1 11,7A2,2 0 0,1 13,9V12.44C14.19,11.75 15,10.47 15,9A4,4 0 0,0 11,5A4,4 0 0,0 7,9C7,10.47 7.81,11.75 9,12.44Z" /></svg>
